!!!OTL: Die Bernauerin Es reisten drei Herren aus Muenchen heraus,
!!!ARE: Europa, Suedosteuropa, Rumaenien, Siebenbuergen
!!!YOR: 3, S. 200
!!    1898 gedruckt
!!!SCT: Q0065
!!!YEM: Copyright 1995, estate of Helmut Schaffrath.
**kern
*ICvox
*Ivox
*M4/4
*k[f#c#]
*D:
{4d
=1
2d
4f#
4g
=2
2a
4a
4a
=3
4a
4dd
4cc#
4b
=4
2b
4a}
{4a
=5
4a
4b
4cc#
4a
=6
2dd
4a
4a
=7
4b
4b
4a
4g
=8
2f#
4e}
{4a
=9
2dd
4cc#
4b
=10
2a
4f#
4f#
=11
2b
2cc#
=12
4dd
4a
8b
8a
4g
=13
2f#
2e
=14
2d
4r}
==
!!!AGN: Ballade, historisch (1435) , Standesunterschied, Liebe, Mord
!! Anhaengsel an der letzten Zeile.
!!!ONB: ESAC (Essen Associative Code) Database: BALLADE
!!!AMT: simple quadruple
!!!AIN: vox
!!!EED: Helmut Schaffrath
!!!EEV: 1.0
*-
